symbols/web/comment_bank/materialsymbolsoutlined/comment_bank_wght700fill1_48px.svg

<svg xmlns="http://www.w3.org/2000/svg" height="48" width="48"><path d="M2.75 45.25V7.45q0-1.9 1.375-3.325Q5.5 2.7 7.45 2.7h33.1q1.9 0 3.325 1.425Q45.3 5.55 45.3 7.45v25.1q0 1.9-1.425 3.3t-3.325 1.4h-29.8ZM25.7 20.1l4.85-2.5 4.8 2.5V7.45H25.7Z"/></svg>

<svg xmlns="http://www.w3.org/2000/svg" height="48" width="48"><path d="M2.75 45.25V7.45Q2.75 5.55 4.125 4.125Q5.5 2.7 7.45 2.7H40.55Q42.45 2.7 43.875 4.125Q45.3 5.55 45.3 7.45V32.55Q45.3 34.45 43.875 35.85Q42.45 37.25 40.55 37.25H10.75ZM25.7 20.1 30.55 17.6 35.35 20.1V7.45H25.7Z"/></svg>
